icons/health-insurance.svg

<?xml version="1.0" encoding="UTF-8"?><svg xmlns="http://www.w3.org/2000/svg" viewBox="0 0 50 50"><g id="uuid-95abb994-cf1a-4085-8419-264abcd5697b"><path d="M11.39,17.74v-2.61h-3.24v2.62c.01,.13-.04,.26-.13,.36-.09,.09-.22,.15-.35,.15h-2.54v3.22h2.54c.13,0,.26,.05,.35,.14,.09,.09,.15,.22,.15,.35v2.56h3.22v-2.56c0-.28,.23-.5,.5-.5h2.62v-3.23h-2.62c-.28,0-.5-.23-.5-.5Z" fill="none"/><path d="M47.7,10.51H1.1c-.28,0-.5,.22-.5,.5v27.99c0,.28,.22,.5,.5,.5H47.7c.28,0,.5-.22,.5-.5V11.01c0-.28-.22-.5-.5-.5Zm-.5,27.99H1.6v-2.9H47.2v2.9Zm0-3.9H1.6v-1.81H47.2v1.81Zm0-2.81H1.6V11.51H47.2V31.78Z"/><path d="M4.62,22.48h2.55v2.55c0,.28,.22,.5,.5,.5h4.22c.28,0,.5-.22,.5-.5v-2.56h2.62c.28,0,.5-.22,.5-.5v-4.23c0-.28-.22-.5-.5-.5h-2.62v-2.62c0-.28-.23-.5-.51-.5H7.64c-.13,0-.26,.05-.35,.15s-.15,.22-.15,.35v2.62h-2.52c-.13,0-.26,.05-.35,.14-.09,.09-.15,.22-.15,.35v4.23c0,.13,.05,.26,.14,.35s.21,.14,.35,.15Zm.5-4.23h2.54c.13,0,.26-.05,.35-.14,.09-.09,.15-.22,.15-.36v-2.62h3.22v2.61c0,.28,.23,.5,.5,.5h2.62v3.23h-2.62c-.28,0-.5,.22-.5,.5v2.56h-3.22v-2.56c0-.13-.05-.26-.15-.35-.09-.09-.22-.15-.35-.15h-2.55v-3.22Z"/><path d="M22.63,16.91h21.32c.28,0,.5-.22,.5-.5s-.22-.5-.5-.5H22.63c-.28,0-.5,.22-.5,.5s.22,.5,.5,.5Z"/><path d="M22.34,21.65h21.32c.28,0,.5-.22,.5-.5s-.22-.5-.5-.5H22.34c-.28,0-.5,.22-.5,.5s.22,.5,.5,.5Z"/></g><g id="uuid-c5fcedc6-712e-4ad3-8e1e-bf32e3bc02d3"><text transform="translate(.06 54.88)" font-family="Roboto-Regular, Roboto" font-size="6"><tspan x="0" y="0">health-insu</tspan><tspan x="29.29" y="0" letter-spacing="-.02em">r</tspan><tspan x="31.2" y="0">ance</tspan></text></g></svg>

<svg xmlns="http://www.w3.org/2000/svg" viewBox="0 0 50 50"><g id="e5c617e6-d786-4a30-9f35-48d10f04203f" data-name="ICONS"><path d="M11.39,17.74V15.13H8.15v2.62a.49.49,0,0,1-.15.36.51.51,0,0,1-.35.15H5.12v3.23H7.66a.49.49,0,0,1,.36.15.5.5,0,0,1,.14.35v2.56h3.23V22a.5.5,0,0,1,.5-.5h2.62V18.25H11.88A.49.49,0,0,1,11.39,17.74Z" fill="none"/><path d="M47.7,10.51H1.1a.5.5,0,0,0-.5.5V39a.5.5,0,0,0,.5.5H47.7a.5.5,0,0,0,.5-.5V11A.5.5,0,0,0,47.7,10.51Zm-.5,28H1.6v-2.9H47.2Zm0-3.9H1.6V32.78H47.2Zm0-2.81H1.6V11.51H47.2Z"/><path d="M4.62,22.48H7.16V25a.5.5,0,0,0,.5.5h4.23a.5.5,0,0,0,.5-.5V22.48H15a.51.51,0,0,0,.5-.5V17.75a.5.5,0,0,0-.5-.5H12.38V14.63a.5.5,0,0,0-.5-.5H7.64a.51.51,0,0,0-.35.15.51.51,0,0,0-.15.36l0,2.61H4.62a.5.5,0,0,0-.35.14.55.55,0,0,0-.15.36V22a.5.5,0,0,0,.14.35A.56.56,0,0,0,4.62,22.48Zm.5-4.23H7.66A.51.51,0,0,0,8,18.11a.49.49,0,0,0,.15-.36V15.13h3.23v2.61a.49.49,0,0,0,.49.5h2.63v3.23H11.89a.5.5,0,0,0-.5.5v2.55H8.16V22A.5.5,0,0,0,8,21.62a.49.49,0,0,0-.36-.15H5.12Z"/><path d="M22.63,16.91H44a.51.51,0,0,0,.5-.5.5.5,0,0,0-.5-.5H22.63a.5.5,0,0,0-.5.5A.5.5,0,0,0,22.63,16.91Z"/><path d="M22.34,21.65H43.66a.5.5,0,0,0,0-1H22.34a.5.5,0,1,0,0,1Z"/></g><g id="b1716628-a036-49ff-9435-fad4fbc7a0a3" data-name="LABELS"><text transform="translate(0.06 54.88)" font-size="6" font-family="Roboto-Regular, Roboto">health-insu<tspan x="29.29" y="0" letter-spacing="-0.02em">r</tspan><tspan x="31.2" y="0">ance</tspan></text></g></svg>
